X: 22882
T: Lark On The Strand, The
R: jig
M: 6/8
K: Gmajor
A3 AGA|BGE G3|ABA GBd|edg edB|
GAA AGA|BGE G3|ABA GAB|dBG BdB:|
|:GBd g2 g|gba gdB|GBd e2d|edg edB|
GBd g2 g|gba gab|a2a age|edg edB:|

